assets/failure.svg

<svg fill="none" height="60" viewBox="0 0 60 60" width="60" xmlns="http://www.w3.org/2000/svg"><path d="m30 0c-5.9334 0-11.7336 1.75947-16.6671 5.05591-4.93347 3.29644-8.77864 7.98179-11.04927 13.46359-2.2706314 5.4818-2.864731 11.5138-1.707175 17.3332 1.157555 5.8194 4.014775 11.1649 8.210355 15.3605 4.19559 4.1956 9.54109 7.0528 15.36049 8.2103 5.8194 1.1576 11.8514.5635 17.3332-1.7071 5.4818-2.2707 10.1671-6.1158 13.4636-11.0493 3.2964-4.9335 5.0559-10.7337 5.0559-16.6671-.0089-7.9538-3.1725-15.5792-8.7966-21.20337-5.6242-5.62416-13.2496-8.78772615-21.2034-8.79663zm-.0001 47.7829c-.4977.0001-.9843-.1475-1.3982-.4241-.4139-.2765-.7364-.6696-.9269-1.1294-.1905-.4599-.2404-.9659-.1433-1.4541s.3368-.9366.6888-1.2886c.3519-.352.8004-.5917 1.2886-.6888s.9942-.0473 1.4541.1432c.4598.1905.8529.513 1.1294.9269.2766.4139.4242.9005.4242 1.3982 0 .3305-.0651.6578-.1916.9631-.1264.3054-.3118.5828-.5455.8165s-.5111.4191-.8165.5456c-.3053.1264-.6326.1915-.9631.1915zm3.6816-31.6816-1.0301 19.1883c-.0365.6787-.3317 1.3175-.825 1.785-.4932.4675-1.1469.7281-1.8266.7281-.6796 0-1.3334-.2606-1.8267-.7281s-.7885-1.1063-.8249-1.785l-1.0302-19.1883c-.0268-.5001.0485-1.0005.2214-1.4705s.4398-.8999.7843-1.2634.7595-.6531 1.2196-.8509.9556-.2999 1.4565-.2999c.5008 0 .9964.1021 1.4565.2999.4601.1979.8751.4874 1.2196.8509s.6113.7934.7842 1.2634.2482.9704.2214 1.4705z" fill="#00a1cc"/></svg>

<svg width="60" height="60" viewBox="0 0 60 60" fill="none" xmlns="http://www.w3.org/2000/svg">
<path d="M30 0C24.0666 0 18.2664 1.75947 13.3329 5.05591C8.39943 8.35235 4.55426 13.0377 2.28363 18.5195C0.0129986 24.0013 -0.581101 30.0333 0.576455 35.8527C1.73401 41.6721 4.59123 47.0176 8.78681 51.2132C12.9824 55.4088 18.3279 58.266 24.1473 59.4235C29.9667 60.5811 35.9987 59.987 41.4805 57.7164C46.9623 55.4457 51.6476 51.6006 54.9441 46.6671C58.2405 41.7336 60 35.9334 60 30C59.9911 22.0462 56.8275 14.4208 51.2034 8.79663C45.5792 3.17247 37.9538 0.00890385 30 0ZM29.9999 47.7829C29.5022 47.783 29.0156 47.6354 28.6017 47.3588C28.1878 47.0823 27.8653 46.6892 27.6748 46.2294C27.4843 45.7695 27.4344 45.2635 27.5315 44.7753C27.6286 44.2871 27.8683 43.8387 28.2203 43.4867C28.5722 43.1347 29.0207 42.895 29.5089 42.7979C29.9971 42.7008 30.5031 42.7506 30.963 42.9411C31.4228 43.1316 31.8159 43.4541 32.0924 43.868C32.369 44.2819 32.5166 44.7685 32.5166 45.2662C32.5166 45.5967 32.4515 45.924 32.325 46.2293C32.1986 46.5347 32.0132 46.8121 31.7795 47.0458C31.5458 47.2795 31.2684 47.4649 30.963 47.5914C30.6577 47.7178 30.3304 47.7829 29.9999 47.7829ZM33.6815 16.1013L32.6514 35.2896C32.6149 35.9683 32.3197 36.6071 31.8264 37.0746C31.3332 37.5421 30.6795 37.8027 29.9998 37.8027C29.3202 37.8027 28.6664 37.5421 28.1731 37.0746C27.6798 36.6071 27.3846 35.9683 27.3482 35.2896L26.318 16.1013C26.2912 15.6012 26.3665 15.1008 26.5394 14.6308C26.7123 14.1608 26.9792 13.7309 27.3237 13.3674C27.6682 13.0039 28.0832 12.7143 28.5433 12.5165C29.0034 12.3187 29.4989 12.2166 29.9998 12.2166C30.5006 12.2166 30.9962 12.3187 31.4563 12.5165C31.9164 12.7144 32.3314 13.0039 32.6759 13.3674C33.0204 13.7309 33.2872 14.1608 33.4601 14.6308C33.633 15.1008 33.7083 15.6012 33.6815 16.1013Z" fill="#00A1CC"/>
<defs>
<linearGradient id="paint0_linear_4892_82723" x1="30" y1="0" x2="30" y2="60" gradientUnits="userSpaceOnUse">
<stop stop-color="#00A1CC"/>
<stop offset="1" stop-color="#0E83A3"/>
</linearGradient>
</defs>
</svg>
